X: 8
T:The Rocky Road To Dublin
% Nottingham Music Database
S:Toby Bennett
M:9/8
K:Am
A|"Am"efe "G"dcB "Am"A3|"Am"E2A A2A "G"Bcd|"Am"efe "G"dcB "Am"A2c|\
"G"B2A G2A Bcd|
"Am"efe "G"dcB "Am"A3|"Am"E2A A2A "G"Bcd|"Em"e^fg "Bm"fga "Em"g2e|\
"G"d2B G2A Bcd|
"Am"e2a a2^f "G"g2b|"Am"e2a a2A "G"Bcd|"Am"e2a a2^f "G"g2e|"G"d2B G2A Bcd|
"Am"e2a a2^f "G"g2b|"Am"e2a a2A "G"Bcd|"Em"e^fg "Bm"fga "Em"g2e|"G"d2B G2A Bcd\
||


